production/images/icons/shopping-bag.svg

<svg width="48" height="48" viewBox="0 0 48 48" fill="none" xmlns="http://www.w3.org/2000/svg">
<path d="M43.0059 39.5819L40.8626 12.5717C40.7295 10.8314 39.2572 9.46875 37.5122 9.46875H33.2781V15.7422C33.2781 16.5191 32.6492 17.148 31.8723 17.148C31.0964 17.148 30.4665 16.5191 30.4665 15.7422V9.46875H17.5336V15.7422C17.5336 16.5191 16.9038 17.148 16.1279 17.148C15.351 17.148 14.7221 16.5191 14.7221 15.7422V9.46875H10.4879C8.74298 9.46875 7.27064 10.8314 7.13761 12.5679L4.99336 39.5857C4.82751 41.7496 5.57817 43.9032 7.05229 45.4945C8.52651 47.0858 10.6164 47.9995 12.7859 47.9995H35.2143C37.3839 47.9995 39.4738 47.0858 40.948 45.4944C42.4221 43.9031 43.1728 41.7495 43.0059 39.5819ZM30.3335 25.827L23.0629 33.0976C22.7883 33.3722 22.4284 33.5099 22.0686 33.5099C21.7087 33.5099 21.3489 33.3722 21.0743 33.0976L17.6668 29.6901C17.1176 29.1409 17.1176 28.2515 17.6668 27.7023C18.2159 27.1531 19.1063 27.1531 19.6545 27.7023L22.0687 30.1155L28.3458 23.8384C28.8941 23.2901 29.7844 23.2901 30.3336 23.8384C30.8827 24.3876 30.8827 25.2778 30.3335 25.827Z" fill="#70715F"/>
<path d="M24.0006 0C18.8846 0 14.7227 4.16288 14.7227 9.27891V9.46912H17.5342V9.27891C17.5342 5.71294 20.4348 2.81147 24.0007 2.81147C27.5667 2.81147 30.4672 5.71294 30.4672 9.27891V9.46912H33.2787V9.27891C33.2786 4.16288 29.1167 0 24.0006 0Z" fill="#70715F"/>
</svg>

<svg width="48" height="48" viewBox="0 0 48 48" fill="none" xmlns="http://www.w3.org/2000/svg"><path d="M43.006 39.582l-2.143-27.01a3.375 3.375 0 00-3.35-3.103h-4.235v6.273a1.405 1.405 0 11-2.811 0V9.47H17.534v6.273a1.406 1.406 0 11-2.812 0V9.47h-4.234a3.375 3.375 0 00-3.35 3.099L4.993 39.586a7.839 7.839 0 002.06 5.909A7.84 7.84 0 0012.785 48h22.428a7.84 7.84 0 005.734-2.506 7.838 7.838 0 002.058-5.912zM30.334 25.827l-7.271 7.27a1.402 1.402 0 01-1.989 0l-3.407-3.407a1.405 1.405 0 111.987-1.988l2.415 2.413 6.277-6.277a1.407 1.407 0 011.988 1.989zM24 0c-5.115 0-9.277 4.163-9.277 9.279v.19h2.811v-.19c0-3.566 2.9-6.468 6.467-6.468a6.474 6.474 0 016.466 6.468v.19h2.812v-.19C33.279 4.163 29.117 0 24 0z" fill="#70715F"/></svg>
